X: 41578
T: Unwilling Sparrow, The
R: jig
M: 6/8
K: Dmajor
|:BAF DBA|FEF ~A3|Bdf edf|edB AFA|
~G3 ~F3|BAF DdB|AFA daf|edB ~d3:|
ABd ~e3|fdB BAF|ABd efg|fdB ~A3|
ABd efg|fdB def|edf edB|~A3 ABG|
ABd ~e3|fdB BAF|ABd efg|fdB ~A3|
ABd edB|AFE DdB|AFA daf|edB ~d3||

